img/icons/viber.svg

<svg width="24" height="24" viewBox="0 0 24 24" fill="none" xmlns="http://www.w3.org/2000/svg">
<path d="M7.42185 5.0049C7.20188 4.97424 6.97752 5.01637 6.78613 5.12427H6.76982C6.32547 5.37275 5.92519 5.6868 5.58386 6.05475C5.30019 6.36763 5.14631 6.68422 5.1059 6.98895C5.0818 7.17059 5.09812 7.35224 5.15486 7.52573L5.17506 7.53759C5.49448 8.43323 5.91182 9.29475 6.42165 10.1059C7.07836 11.2454 7.88657 12.2992 8.8262 13.2414L8.85417 13.2799L8.89848 13.3111L8.92645 13.3421L8.95909 13.3689C9.95021 14.2679 11.0575 15.0426 12.2543 15.6739C13.6221 16.3842 14.4522 16.7201 14.9503 16.8595V16.8669C15.0964 16.9092 15.2293 16.9284 15.363 16.9284C15.7875 16.8988 16.1895 16.7343 16.5046 16.4613C16.8885 16.1356 17.2141 15.7522 17.4683 15.3263V15.3188C17.7068 14.8903 17.6261 14.4847 17.2818 14.2104C16.5922 13.6354 15.8467 13.1248 15.0552 12.6853C14.5251 12.411 13.9866 12.577 13.7682 12.8551L13.3027 13.4149C13.0641 13.6928 12.6304 13.6543 12.6304 13.6543L12.618 13.6617C9.3842 12.8736 8.52155 9.74998 8.52155 9.74998C8.52155 9.74998 8.48113 9.32518 8.78035 9.10866L9.36321 8.66085C9.64222 8.44435 9.83652 7.93129 9.5373 7.4249C9.07987 6.66877 8.54572 5.9573 7.94256 5.30072C7.81069 5.14594 7.6257 5.04062 7.4203 5.00342L7.42185 5.0049Z" fill="black"/>
<path d="M12.8876 3.64691C12.5606 3.64691 12.2955 3.89982 12.2955 4.2118C12.2955 4.52378 12.5606 4.77669 12.8876 4.77669C14.3851 4.77669 15.6294 5.24365 16.6124 6.1378C17.1185 6.62744 17.5124 7.20703 17.771 7.84127C18.0306 8.47791 18.1487 9.15676 18.1183 9.83677C18.1045 10.1485 18.358 10.4118 18.6848 10.425C19.0115 10.4384 19.2877 10.1964 19.3015 9.88467C19.3388 9.04818 19.1934 8.21355 18.8746 7.43168C18.5558 6.64985 18.0706 5.9374 17.4488 5.33761L17.4369 5.32674C16.2171 4.21388 14.671 3.64691 12.8876 3.64691Z" fill="black"/>
<path d="M12.846 5.50487C12.519 5.50487 12.2538 5.75779 12.2538 6.06976C12.2538 6.38174 12.519 6.63466 12.846 6.63466H12.8653C13.9459 6.7073 14.7321 7.05091 15.2834 7.61495C15.8477 8.19584 16.14 8.91735 16.1183 9.81011C16.1107 10.1219 16.3697 10.3806 16.6966 10.3879C17.0235 10.3951 17.2947 10.1481 17.3023 9.8362C17.3307 8.66407 16.9356 7.65333 16.1513 6.84629L16.1503 6.84522C15.349 6.0249 14.2497 5.59094 12.9253 5.50614L12.9055 5.50487H12.846Z" fill="black"/>
<path d="M12.8239 7.39673C12.4973 7.38033 12.2187 7.61959 12.2015 7.93114C12.1843 8.2427 12.4351 8.50855 12.7616 8.52496C13.2575 8.54985 13.5734 8.69171 13.7722 8.88314C13.9718 9.0754 14.121 9.38325 14.1483 9.8659C14.1659 10.1775 14.4448 10.4164 14.7714 10.3996C15.0979 10.3829 15.3484 10.1168 15.3309 9.80523C15.2926 9.12735 15.0702 8.52803 14.6137 8.08816C14.1562 7.64748 13.5315 7.43226 12.8239 7.39673Z" fill="black"/>
<path fill-rule="evenodd" clip-rule="evenodd" d="M6.35841 0.690358C10.1268 -0.113257 14.0347 -0.113257 17.8031 0.690358L18.2047 0.775973C20.451 1.25499 22.2238 2.89862 22.79 5.02699C23.7465 8.62292 23.7465 12.3899 22.79 15.9857C22.2238 18.1141 20.4509 19.7577 18.2047 20.2368L17.8031 20.3224C15.436 20.8272 13.0139 21.0149 10.6058 20.8855L7.46375 23.5675C7.22248 23.7734 6.88286 23.8378 6.57739 23.7356C6.27191 23.6334 6.04896 23.3806 5.9955 23.0759L5.47584 20.1144C3.45978 19.5168 1.89668 17.9597 1.37158 15.9857C0.415038 12.3899 0.415038 8.62292 1.37158 5.027C1.93774 2.89862 3.71064 1.25499 5.95691 0.775973L6.35841 0.690358ZM17.4156 2.34421C13.9024 1.59502 10.2592 1.59502 6.74592 2.34421L6.34442 2.42983C4.7518 2.76945 3.4948 3.9348 3.09338 5.44384C2.20961 8.7662 2.20961 12.2465 3.09338 15.5688C3.4948 17.0779 4.75179 18.2433 6.34442 18.5829L6.45048 18.6055C6.80326 18.6807 7.07304 18.9524 7.13273 19.2926L7.48122 21.2787L9.69858 19.3859C9.87762 19.2331 10.1139 19.156 10.3536 19.1722C12.7144 19.3316 15.0934 19.1637 17.4156 18.6685L17.8171 18.5829C19.4098 18.2433 20.6668 17.0779 21.0682 15.569C21.9519 12.2465 21.9519 8.7662 21.0682 5.44384C20.6668 3.9348 19.4098 2.76945 17.8171 2.42983L17.4156 2.34421Z" fill="black"/>
</svg>

<svg xmlns="http://www.w3.org/2000/svg" width="24" height="24" fill="none" viewBox="0 0 24 24">
    <path fill="#000"
          d="M7.422 5.005c-.22-.03-.444.011-.636.12H6.77a4.836 4.836 0 0 0-1.186.93c-.284.313-.438.63-.478.934-.024.182-.008.363.049.537l.02.012c.32.895.737 1.757 1.247 2.568a15.169 15.169 0 0 0 2.404 3.135l.028.039.044.031.028.031.033.027a16.047 16.047 0 0 0 3.295 2.305c1.368.71 2.198 1.046 2.696 1.186v.007c.146.042.28.061.413.061.425-.03.826-.194 1.142-.467.384-.325.71-.709.963-1.135v-.007c.239-.429.158-.834-.186-1.109a14.366 14.366 0 0 0-2.227-1.525c-.53-.274-1.068-.108-1.287.17l-.465.56c-.239.278-.673.24-.673.24l-.012.007C9.384 12.874 8.522 9.75 8.522 9.75s-.04-.425.258-.641l.583-.448c.28-.217.474-.73.174-1.236A13.372 13.372 0 0 0 7.943 5.3a.895.895 0 0 0-.523-.298l.002.002ZM12.888 3.647a.579.579 0 0 0-.592.565c0 .312.265.565.592.565 1.497 0 2.741.467 3.724 1.36a5 5 0 0 1 1.159 1.704 4.72 4.72 0 0 1 .347 1.996.576.576 0 0 0 .567.588.582.582 0 0 0 .617-.54 5.805 5.805 0 0 0-.427-2.453 6.128 6.128 0 0 0-1.426-2.094l-.012-.011c-1.22-1.113-2.766-1.68-4.55-1.68Z"/>
    <path fill="#000"
          d="M12.846 5.505a.58.58 0 0 0-.592.565.58.58 0 0 0 .592.565h.02c1.08.072 1.866.416 2.417.98.565.58.857 1.302.835 2.195a.578.578 0 0 0 .579.578.58.58 0 0 0 .605-.552c.029-1.172-.366-2.183-1.15-2.99h-.002c-.801-.821-1.9-1.255-3.225-1.34l-.02-.001h-.059Z"/>
    <path fill="#000"
          d="M12.824 7.397a.582.582 0 0 0-.623.534.576.576 0 0 0 .56.594c.497.025.812.167 1.011.358.2.192.349.5.376.983.018.312.297.55.623.534a.575.575 0 0 0 .56-.595c-.038-.678-.26-1.277-.717-1.717-.458-.44-1.083-.656-1.79-.691Z"/>
    <path fill="#000" fill-rule="evenodd"
          d="M6.358.69a27.466 27.466 0 0 1 11.445 0l.402.086c2.246.479 4.019 2.123 4.585 4.251a21.285 21.285 0 0 1 0 10.959c-.566 2.128-2.34 3.772-4.585 4.25l-.402.086c-2.367.505-4.79.693-7.197.564l-3.142 2.681a.921.921 0 0 1-.887.169.86.86 0 0 1-.582-.66l-.52-2.962c-2.015-.597-3.578-2.154-4.103-4.128a21.284 21.284 0 0 1 0-10.959C1.938 2.899 3.71 1.255 5.957.776L6.358.69Zm11.058 1.654a25.607 25.607 0 0 0-10.67 0l-.402.086c-1.592.34-2.85 1.505-3.25 3.014a19.664 19.664 0 0 0 0 10.125c.4 1.509 1.658 2.674 3.25 3.014l.106.023a.866.866 0 0 1 .683.687l.348 1.986L9.7 19.386a.915.915 0 0 1 .655-.214c2.36.16 4.74-.008 7.062-.503l.401-.086c1.593-.34 2.85-1.505 3.251-3.014a19.667 19.667 0 0 0 0-10.125c-.401-1.51-1.658-2.675-3.25-3.014l-.402-.086Z"
          clip-rule="evenodd"/>
</svg>
